!!!SOCIAL_FUNCTION:	moccasin game songs
!!!PDT:	1909
!!!OTL: No_142.krn
!!!REG: Great_Lakes
!!!LANG: Non-Tone
!!!LING_GROUP: Algonquin
**kern
*staff1
*clefF4
*k[f#c#]
*M3/4
4BB/
=1
2F#\
4E\
=2||
*M2/4
2F#\
=3||
*M3/4
2.B\
=4||
*M2/4
12E\L
12F#\
12E\J
4D\
=5||
*M3/4
2E\
4F#\
=6||
*M4/4
12F#\L
12G\
12F#\J
12E\L
12F#\
12E\J
12D\L
12E\
12D\J
4BB/
=7||
*M3/4
2D\
4E\
=8
12D\L
12E\
12D\J
4BB/
4BB/
=9
2BB/
4BB/
=10
2.BB/
=11
2BB/
4F#\
=12
2B\
4F#\
=13
2B\
4f#\
=14
[2.B\
=15
4B\]
4F#\
4E\
=16||
*M2/4
2F#\
=17
2B\
=18
12D\L
12E\
12D\J
4BB/
=19||
*M3/4
2E\
4F#\
=20||
*M4/4
12F#\L
12G\
12F#\J
12E\L
12F#\
12E\J
12D\L
12E\
12D\J
4BB/
=21||
*M3/4
2D\
4E\
=22
12D\L
12E\
12D\J
4BB/
4BB/
=23
2BB/
4BB/
=24
2.BB/
==
*-
